X: 1591
T: Jerry Daly's Hornpipe - 2nd Setting
R: hornpipe
%S: s:4 b:16(4+4+4+4)
B: O'Neill's 1850 #1591
O: J.O'Neill
Z: Michael D. Long, 9/29/98
Z: Michael Hogan
M: C|
L: 1/8
K: A
  (ed) | c2 (Bc) ABcA | GFEF GABd | (eg)(fa) gedB | B2 G2 G2 ||
| (ed) | c2 (Bc) ABcA | GFEF GABd | (eg)(fa) gedB | A2 A2 A2 :|
|: e2  | agab aged | B2 G2 G2 (ef) | {a}gfga gfed | e2 a2 a2 ||
| (ed) | c2 (Bc) ABcA | GFEF GABd | (eg)(fa) gedB | A2 A2 A2 :|
